X: 20175
T: Jocelyn's Tree
R: jig
M: 6/8
K: Dmajor
|:FDB AGE|FAd f2a|ggb ege|Bcc AGE|
FGB ABG|FAd f2a|bge cAF|GFE D2E:|
|:F2D DED|FAd fdA|g2e efd|Bcd ecA|
B2g bge|Adf afd|FAd gec|1 AGE D2E:|2 AGE D2B||
|:ABA fff|ab^g afd|BGE A,A,A,|CEA gec|
d2g eff|ab^g afd|Bge cec|1 AGE D2B:|2 AGE D3||

